X:1
T:Footprints of Jesus
T:Footprints of Jesus
T:Asa Brooks Everett
T:Mary Bridges Canedy Slade, 1871
T:Public Domain Courtesy of the Cyber Hymnal™
T:Public Domain Courtesy of the Cyber Hymnal™
C:Asa Brooks Everett
Z:Public Domain
Z:Courtesy of the Cyber Hymnal™
%%score ( 1 2 ) 3
L:1/8
Q:1/4=110
M:4/4
K:Eb
V:1 treble 
V:2 treble 
V:3 bass 
V:1
 [EG]2 [EG]2 [EG]2 [EG]>[EF] | E2 [Ec]2 [Ec]2 [EB]2 | [EB]4 [EG]2 E2 | [DF]8 | %4
w: 1.~Sweet- ly, Lord, have we|heard Thee call- ing,|Come, fol- low|Me!|
w: 2.~Though they lead o’er the|cold, dark mount- ains,|Seek- ing His|sheep;|
w: 3.~If they lead through the|tem- ple ho- ly,|Preach- ing the|Word;|
w: 4.~Though, dear Lord, in Thy|path- way keep- ing,|We fol- low|Thee;|
w: 5.~If Thy way and its|sor- rows bear- ing,|We go a-|gain,|
w: 6.~By and by, through the|shin- ing por- tals,|Turn- ing our|feet,|
w: 7.~Then at last when on|high He sees us,|Our jour- ney|done,|
 [EG]2 [EG]2 [EG]2 [EG]>[EF] | E2 [Ec]2 [Ec]2 [EB]2 | E4 [EG]2 [DF]2 | E8 || %8
w: And we see where Thy|foot- prints fall- ing|Lead us to|Thee.|
w: Or a- long by Si-|lo- am’s fount- ains,|Help- ing the|weak.|
w: Or in homes of the|poor and low- ly,|Serv- ing the|Lord.|
w: Through the gloom of that|place of weep- ing,|Geth- sem- a-|ne!|
w: Up the slope of the|hill- side, bear- ing|Our cross of|pain.|
w: We shall walk, with the|glad im- mor- tals,|Heav’n’s gold- en|street.|
w: We will rest where the|steps of Je- sus|End at His|throne.|
"^Refrain" [Ec]4 [EA]2 [Ec]2 | [Ec]4 [EB]2 [EB]2 | [EB]2 [Ec]2 [EB]2 [EG]2 | [DF]8 | %12
w: ||||
w: ||||
w: ||||
w: Foot- prints of|Je- sus, That|make the path- way|glow;|
w: ||||
w: ||||
w: ||||
 [EG]2 [EG]2 [EG]2 [EG]>[EF] | E2 [Ec]2 [Ec]2 [EB]2 | E4 [EG]2 [DF]2 | E8 |] %16
w: ||||
w: ||||
w: ||||
w: We will fol- low the|steps of Je- sus|Wher- e’er they|go.|
w: ||||
w: ||||
w: ||||
V:2
 x8 | E2 x6 | x6 E2 | x8 | x8 | E2 x6 | E4 x4 | E8 || x8 | x8 | x8 | x8 | x8 | E2 x6 | E4 x4 | %15
 E8 |] %16
V:3
 [E,B,]2 [E,B,]2 [E,B,]2 [E,B,]>[E,B,] | [A,,C]2 [A,,A,]2 [A,,A,]2 [E,G,]2 | %2
 [E,G,]4 [E,B,]2 [E,G,]2 | [B,,B,]8 | [E,B,]2 [E,B,]2 [E,B,]2 [E,B,]>[E,B,] | %5
 [A,,C]2 [A,,A,]2 [A,,A,]2 [E,G,]2 | [C,G,]4 [B,,B,]2 [B,,A,]2 | [E,G,]8 || %8
 [A,,A,]4 [A,,C]2 [A,,A,]2 | [E,A,]4 [E,G,]2 [E,G,]2 | [E,G,]2 [E,A,]2 [E,G,]2 [E,B,]2 | [B,,B,]8 | %12
 [E,B,]2 [E,B,]2 [E,B,]2 [E,B,]>[E,B,] | [A,,C]2 [A,,A,]2 [A,,A,]2 [E,G,]2 | %14
 [C,G,]4 [B,,B,]2 [B,,A,]2 | [E,G,]8 |] %16

